public/images/home/Notifications-3.svg

<svg width="32" height="32" viewBox="0 0 32 32" fill="none" xmlns="http://www.w3.org/2000/svg">
<g filter="url(#filter0_b_58_833)">
<rect width="32" height="32" rx="16" fill="#C3C3C3" fill-opacity="0.3" style="mix-blend-mode:luminosity"/>
<rect x="0.5" y="0.5" width="31" height="31" rx="15.5" stroke="url(#paint0_linear_58_833)"/>
<path fill-rule="evenodd" clip-rule="evenodd" d="M11.2664 15.2016H12.8232C12.8944 13.9648 13.1296 12.8256 13.4928 11.9072C12.908 12.2655 12.4067 12.7449 12.0227 13.3132C11.6386 13.8814 11.3808 14.5253 11.2664 15.2016ZM16 9.60156C14.3026 9.60156 12.6747 10.2758 11.4745 11.4761C10.2743 12.6763 9.59998 14.3042 9.59998 16.0016C9.59998 17.6989 10.2743 19.3268 11.4745 20.527C12.6747 21.7273 14.3026 22.4016 16 22.4016C17.6974 22.4016 19.3252 21.7273 20.5255 20.527C21.7257 19.3268 22.4 17.6989 22.4 16.0016C22.4 14.3042 21.7257 12.6763 20.5255 11.4761C19.3252 10.2758 17.6974 9.60156 16 9.60156ZM16 11.2016C15.9392 11.2016 15.8144 11.2272 15.628 11.4112C15.4376 11.5984 15.2304 11.9096 15.0384 12.3568C14.7272 13.0824 14.5 14.0704 14.4256 15.2016H17.5744C17.5 14.0704 17.2728 13.0824 16.9616 12.3568C16.7696 11.9088 16.5616 11.5984 16.372 11.4112C16.1856 11.2272 16.0608 11.2016 16 11.2016ZM19.1768 15.2016C19.1056 13.9648 18.8704 12.8256 18.5072 11.9072C19.092 12.2655 19.5932 12.7449 19.9773 13.3132C20.3613 13.8814 20.6192 14.5253 20.7336 15.2016H19.1768ZM17.5744 16.8016H14.4256C14.5 17.9328 14.7272 18.9208 15.0384 19.6464C15.2304 20.0944 15.4384 20.4048 15.628 20.592C15.8144 20.776 15.9392 20.8016 16 20.8016C16.0608 20.8016 16.1856 20.776 16.372 20.592C16.5624 20.4048 16.7704 20.0936 16.9616 19.6464C17.2728 18.9208 17.5 17.9328 17.5744 16.8016ZM18.5072 20.096C18.8704 19.1784 19.1056 18.0384 19.1768 16.8016H20.7336C20.6192 17.4778 20.3613 18.1217 19.9773 18.69C19.5932 19.2582 19.092 19.7376 18.5072 20.096ZM13.4928 20.096C13.1296 19.1776 12.8944 18.0384 12.824 16.8016H11.2664C11.3808 17.4778 11.6386 18.1217 12.0227 18.69C12.4067 19.2582 12.908 19.7376 13.4928 20.096Z" fill="white"/>
</g>
<defs>
<filter id="filter0_b_58_833" x="-115.377" y="-115.377" width="262.754" height="262.754" filterUnits="userSpaceOnUse" color-interpolation-filters="sRGB">
<feFlood flood-opacity="0" result="BackgroundImageFix"/>
<feGaussianBlur in="BackgroundImageFix" stdDeviation="57.6885"/>
<feComposite in2="SourceAlpha" operator="in" result="effect1_backgroundBlur_58_833"/>
<feBlend mode="normal" in="SourceGraphic" in2="effect1_backgroundBlur_58_833" result="shape"/>
</filter>
<linearGradient id="paint0_linear_58_833" x1="2.24176" y1="-7.09502e-06" x2="17.4878" y2="35.0987" gradientUnits="userSpaceOnUse">
<stop stop-color="white" stop-opacity="0.25"/>
<stop offset="0.605751" stop-color="white" stop-opacity="0.02"/>
<stop offset="0.701033" stop-color="white" stop-opacity="0.02"/>
<stop offset="1" stop-color="white" stop-opacity="0.1"/>
</linearGradient>
</defs>
</svg>

<svg xmlns="http://www.w3.org/2000/svg" width="32" height="32" fill="none" xmlns:v="https://vecta.io/nano"><g filter="url(#B)"><rect width="32" height="32" rx="16" fill="#c3c3c3" fill-opacity=".3" style="mix-blend-mode:luminosity"/><rect x=".5" y=".5" width="31" height="31" rx="15.5" stroke="url(#A)"/><path fill-rule="evenodd" d="M11.266 15.202h1.557c.071-1.237.307-2.376.67-3.295a4.802 4.802 0 0 0-2.227 3.295zM16 9.602A6.4 6.4 0 1 0 16 22.4a6.4 6.4 0 0 0 0-12.8zm0 1.6c-.06 0-.186.025-.372.21s-.398.498-.59.945c-.31.725-.538 1.713-.612 2.845h3.148c-.074-1.132-.301-2.12-.612-2.845-.192-.448-.4-.759-.59-.946s-.311-.21-.372-.21zm3.177 4c-.071-1.237-.307-2.376-.67-3.295a4.803 4.803 0 0 1 2.227 3.295h-1.557zm-1.603 1.6h-3.148c.074 1.13.301 2.119.612 2.844.192.448.4.759.59.946s.311.21.372.21.186-.026.372-.21.398-.498.59-.946c.31-.725.538-1.713.612-2.844zm.933 3.294c.363-.918.599-2.058.67-3.294h1.557a4.804 4.804 0 0 1-2.227 3.294zm-5.014 0c-.363-.918-.599-2.058-.669-3.294h-1.558a4.803 4.803 0 0 0 2.227 3.294z" fill="#fff"/></g><defs><linearGradient id="A" x1="2.242" y1="0" x2="17.488" y2="35.099" gradientUnits="userSpaceOnUse"><stop stop-color="#fff" stop-opacity=".25"/><stop offset=".606" stop-color="#fff" stop-opacity=".02"/><stop offset=".701" stop-color="#fff" stop-opacity=".02"/><stop offset="1" stop-color="#fff" stop-opacity=".1"/></linearGradient><filter id="B" x="-115.377" y="-115.377" width="262.754" height="262.754" filterUnits="userSpaceOnUse" color-interpolation-filters="sRGB"><feFlood flood-opacity="0"/><feGaussianBlur stdDeviation="57.688"/><feComposite in2="SourceAlpha" operator="in"/><feBlend in="SourceGraphic"/></filter></defs></svg>
